!!!COM:	la Rue, Pierre de
!!!CDT:	~1452///-1518/11/20
!!!OPR:	Missa De virginibus
!!!ONM:	3
!!!OTL:	Credo
!!!AGN:	Mass; Credo
!!!SCT:	Rue1015c
!!!SCA:	Rue1015c
!!!voices:	4
!!!voices-OPR:	4
**kern	**kern	**kern	**kern
*staff4	*staff3	*staff2	*staff1
*Ivox	*Ivox	*Ivox	*Ivox
*I"Bassus	*I"Tenor	*I"Contra	*I"Discantus
*I'B	*I'T	*I'C	*I'D
*>[A,B]	*>[A,B]	*>[A,B]	*>[A,B]
*>A	*>A	*>A	*>A
*clefF4	*clefGv2	*clefGv2	*clefG2
*k[]	*k[]	*k[]	*k[]
*M2/1	*M2/1	*M2/1	*M2/1
*met(C)	*met(C)	*met(C)	*met(C)
=1-	=1-	=1-	=1-
!	!	!	!LO:TX:X=-40:Z=9:t=Discantus notated under Cut-C (error?)]
0F	0r	1r	0r
.	.	[1f	.
=2	=2	=2	=2
1F	0r	2f\]	0r
.	.	2d\	.
2G\	.	2e\	.
2E\	.	2c\	.
=3	=3	=3	=3
2F\	1r	2.d\	1r
2.F\	.	.	.
.	.	4e\	.
.	[1c	2f\	[1cc
4E\	.	.	.
2C/	.	[2g\	.
=4	=4	=4	=4
2F\	1c]	4g\]	2cc\]
.	.	4f\	.
2A\	.	1f	2a/
1G	2d\	.	2b\
.	2B\	2e\	2g/
=5	=5	=5	=5
1F	2c\	1f	2.a/
.	2.c\	.	.
.	.	.	4b\
1r	.	1r	2cc\
.	4B\	.	.
.	2G/	.	[2dd\
=6	=6	=6	=6
0r	2c\	0r	4dd\]
.	.	.	4cc\
.	2e\	.	1cc
.	1d	.	.
.	.	.	2b\
=7	=7	=7	=7
0r	2c\	0r	0cc
.	2f\	.	.
.	2f\	.	.
.	[2e\	.	.
=8	=8	=8	=8
0r	2e\]	0r	2r
.	4d\	.	2ff\
.	4c\	.	.
.	2d\	.	2ff\
.	[2c\	.	[2ee\
=9	=9	=9	=9
0r	2c\]	0r	2ee\]
.	2f\	.	4dd\
.	.	.	4cc\
.	2f\	.	2dd\
.	[2e\	.	[2cc\
=10	=10	=10	=10
0r	2e\]	0r	2cc\]
.	4d\	.	2ff\
.	4c\	.	.
.	2d\	.	2ff\
.	2c\	.	[2ee\
=11	=11	=11	=11
0r	4c\	0r	2ee\]
.	4d\	.	.
.	4e\	.	4dd\
.	4f\	.	4cc\
.	2g\	.	2b\
.	2e\	.	2g/
=12	=12	=12	=12
1.F	0f	1r	0a
.	.	1c	.
2F\	.	.	.
=13	=13	=13	=13
2F\	0r	2c\	0r
2F\	.	1d	.
[1F	.	.	.
.	.	4c\	.
.	.	4B\	.
=14	=14	=14	=14
1F]	0r	2A/	0r
.	.	2c\	.
2.G\	.	1B	.
4F\	.	.	.
=15	=15	=15	=15
2D\	0r	2A/	0r
2F\	.	2.d\	.
1E	.	.	.
.	.	4c#i\	.
.	.	2c#i\	.
=16	=16	=16	=16
1D	0r	0d	0r
2r	.	.	.
[2G\	.	.	.
=17	=17	=17	=17
4G\]	0r	2r	0r
4A\	.	.	.
1B-i	.	2.d\	.
.	.	4e\	.
4A\	.	[2f\	.
4G\	.	.	.
=18	=18	=18	=18
4F\	0r	2f\]	1r
4G\	.	.	.
4A\	.	4e\	.
4B-i\	.	4d\	.
2c\	.	4c\	1cc
.	.	4d\	.
[2c\	.	4e\	.
.	.	4f\	.
=19	=19	=19	=19
2c\]	0r	2g\	2cc\
4B-i\	.	1f	1dd
4A\	.	.	.
1G	.	.	.
.	.	2e\	4cc\
.	.	.	4b\
=20	=20	=20	=20
1F	2r	1f	2a/
.	2f\	.	2cc\
1r	2.g\	1r	1b
.	4f\	.	.
=21	=21	=21	=21
0r	2d\	0r	2a/
.	2f\	.	1dd
.	1e	.	.
.	.	.	2cc#i\
=22	=22	=22	=22
0r	0d	0r	1dd
.	.	.	2r
.	.	.	[2dd\
=23	=23	=23	=23
0r	2r	0r	4dd\]
.	.	.	4ee\
.	2.d\	.	1ff
.	4e\	.	.
.	[2f\	.	4ee\
.	.	.	4dd\
=24	=24	=24	=24
0r	2f\]	0r	2cc\
.	4e\	.	2dd\
.	4d\	.	.
.	2c\	.	1a
.	2d\	.	.
=25	=25	=25	=25
0r	2A/	0r	2r
.	2.c\	.	1a
.	4B\	.	.
.	4A/	.	2a/
.	4G/	.	.
=26	=26	=26	=26
0r	1F	0r	2a/
.	.	.	2a/
.	2r	.	1a
.	[2f\	.	.
=27	=27	=27	=27
0r	2f\]	0r	2r
.	2f\	.	1a
.	2f\	.	.
.	2f\	.	[2a/
=28	=28	=28	=28
0r	1c	0r	2a/]
.	.	.	4g/
.	.	.	4f/
.	2r	.	2e/
.	[2f\	.	4f/
.	.	.	4g/
=29	=29	=29	=29
2r	2f\]	1r	4a/
.	.	.	4b\
1F	2f\	.	2cc\
.	2f\	2r	2a/
2F\	4e\	[2c\	[2cc\
.	4d\	.	.
=30	=30	=30	=30
2F\	2c\	2c\]	4cc\]
.	.	.	4b\
2F\	1f	2c\	2a/
1C	.	2c\	1g
.	2e\	2c\	.
=31	=31	=31	=31
0F	0f	2d\	0f
.	.	1c	.
.	.	4B\	.
.	.	4A/	.
=32	=32	=32	=32
2r	0r	1G	0r
2E\	.	.	.
2F\	.	2r	.
[2A\	.	2c\	.
=33	=33	=33	=33
4A\]	0r	2d\	0r
4G\	.	.	.
4F\	.	2.f\	.
4E\	.	.	.
2D\	.	.	.
.	.	4e\	.
[2G\	.	4d\	.
.	.	4c\	.
=34	=34	=34	=34
4G\]	0r	2d\	0r
4F\	.	.	.
2E\	.	1c	.
1D	.	.	.
.	.	2B\	.
=35	=35	=35	=35
0C	0r	0c	2r
.	.	.	1cc
.	.	.	2cc\
=36	=36	=36	=36
0r	2r	0r	2cc\
.	1f	.	2cc\
.	.	.	2dd\
.	2f\	.	[2cc\
=37	=37	=37	=37
0r	2f\	0r	2cc\]
.	2f\	.	4b\
.	.	.	4a/
.	1e	.	1g
=38	=38	=38	=38
0r	1f	0r	2r
.	.	.	2cc\
.	2r	.	2cc\
.	2f\	.	2cc\
=39	=39	=39	=39
0r	2f\	0r	2dd\
.	2f\	.	2.ff\
.	2.g\	.	.
.	.	.	4ee\
.	.	.	4dd\
.	4e\	.	4cc\
=40	=40	=40	=40
0r	4f\	0r	2dd\
.	4e\	.	.
.	4d\	.	1cc
.	4c\	.	.
.	1d	.	.
.	.	.	2b\
=41	=41	=41	=41
2C/	1c	2r	1cc
2C/	.	2G/	.
2F\	1r	2A/	1r
2E\	.	2B\	.
=42	=42	=42	=42
0C	2r	2c\	1r
.	2e\	4B\	.
.	.	4A/	.
.	2e\	1G	2r
.	2e\	.	2g/
=43	=43	=43	=43
1r	2f\	1r	2a/
.	4e\	.	2b\
.	4d\	.	.
1C	1c	2r	2cc\
.	.	2G/	4b\
.	.	.	4a/
=44	=44	=44	=44
2C/	0r	2G/	1g
2C/	.	2G/	.
2F\	.	2A/	1r
2E\	.	2B\	.
=45	=45	=45	=45
0C	2r	2c\	2r
.	2e\	4B\	2g/
.	.	4A/	.
.	2e\	1G	2g/
.	2e\	.	2g/
=46	=46	=46	=46
0r	2f\	0r	2a/
.	2d\	.	2b\
.	1c	.	2cc\
.	.	.	4b\
.	.	.	4a/
=47	=47	=47	=47
2r	0r	2r	2g/
2.C/	.	2.g\	2.cc\
4D\	.	4f\	4b\
4E\	.	2e\	4g/
4F\	.	.	4a/
=48	=48	=48	=48
2G\	1r	2d\	2b\
2E\	.	2e\	2g/
2F\	2r	4c\	2.a/
.	.	4d\	.
[2C/	[2c\	4e\	.
.	.	4f\	4g/
=49	=49	=49	=49
4C/]	4c\]	2g\	4e/
4D\	4B\	.	4f/
4E\	4G/	2c\	2.g/
4F\	4A/	.	.
2G\	2B\	2r	.
.	.	.	4f/
2C/	2G/	[2c\	4e/
.	.	.	4d/
=50	=50	=50	=50
2r	2.A/	4c\]	2c/
.	.	4d\	.
2.C/	.	4e\	2.cc\
.	4G/	4f\	.
.	4E/	2.g\	.
4D\	4F/	.	4b\
4E\	[2G/	.	4g/
4F\	.	4f\	4a/
=51	=51	=51	=51
2G\	2G/]	2d\	2b\
2E\	2.c\	2e\	2g/
2F\	.	2c\	2a/
.	4B-i\	.	.
2G\	4G/	2B-i\	4b-i\
.	4A/	.	4a/
=52	=52	=52	=52
2E\	4B-i\	0c	4g/
.	4A/	.	4f/
2F\	4G/	.	1f
.	4F/	.	.
1C	1G	.	.
.	.	.	2e/
=53	=53	=53	=53
1r	0F	1r	0f
1F	.	2r	.
.	.	[2f\	.
=54	=54	=54	=54
1G	0r	2f\]	0r
.	.	2e\	.
2F\	.	2f\	.
[2c\	.	[2a\	.
=55	=55	=55	=55
4c\]	0r	4a\]	1r
4A\	.	4f\	.
4B\	.	4g\	.
4G\	.	4e\	.
1A	.	4f\	2r
.	.	4e\	.
.	.	4d\	[2cc\
.	.	4c\	.
=56	=56	=56	=56
1G	1r	1d	2cc\]
.	.	.	2b\
1C	2r	1c	2cc\
.	[2c\	.	[2ee\
=57	=57	=57	=57
0r	4c\]	0r	4ee\]
.	4A/	.	4cc\
.	4B\	.	4dd\
.	4G/	.	4b\
.	2A/	.	4cc\
.	.	.	4b\
.	[2d\	.	4a/
.	.	.	4g/
=58	=58	=58	=58
1F	2d\]	2r	1a
.	2.c\	2f\	.
1G	.	2f\	1g
.	4B\	.	.
.	2B\	2e\	.
=59	=59	=59	=59
2F\	1c	2f\	0r
2.c\	.	2.a\	.
.	1r	.	.
4A\	.	4f\	.
4B\	.	4g\	.
4G\	.	4e\	.
=60	=60	=60	=60
2A\	0r	4f\	2r
.	.	4e\	.
2A\	.	4d\	2cc\
.	.	4c\	.
1G	.	1d	2cc\
.	.	.	2b\
=61	=61	=61	=61
1C	2r	1c	2cc\
.	2.c\	.	2.ee\
1r	.	1r	.
.	4A/	.	4cc\
.	4B\	.	4dd\
.	4G/	.	4b\
=62	=62	=62	=62
1r	2A/	1r	4cc\
.	.	.	4b\
.	1d	.	4a/
.	.	.	4g/
1F	.	2r	1a
.	[2c\	2f\	.
=63	=63	=63	=63
1G	2c\]	2d\	1g
.	2B\	2e\	.
1F	1c	2f\	2r
.	.	[2f\	[2a/
=64	=64	=64	=64
2F\	1c	2f\]	2a/]
1F	.	4e\	2a/
.	.	4d\	.
.	2c\	2c\	2a/
2F\	2c\	2f\	2a/
=65	=65	=65	=65
2G\	2B\	2e\	2b\
2.F\	2c\	4f\	2.a/
.	.	4e\	.
.	[1A	4d\	.
4E\	.	4c\	4g/
4D\	.	[2c\	4f/
4C/	.	.	4e/
=66	=66	=66	=66
2D\	2A/]	4c\]	2f/
.	.	4B\	.
2E\	2G/	2B\	2g/
1C	1G	[1c	2e/
.	.	.	[2cc\
=67	=67	=67	=67
[0C	1r	0c_	4cc\]
.	.	.	4b\
.	.	.	4a/
.	.	.	4g/
.	2r	.	2a/
.	[2c\	.	4g/
.	.	.	4f/
=68	=68	=68	=68
0C]	4c\]	1c]	0e
.	4B\	.	.
.	4A/	.	.
.	4G/	.	.
.	2A/	1r	.
.	2G/	.	.
=69	=69	=69	=69
2r	1G	2r	2r
1C	.	1c	1e
.	2r	.	.
2C/	[2G/	2c\	2e/
=70	=70	=70	=70
1C	2G/]	1c	1e
.	2G/	.	.
2C/	1A	2c\	2e/
[2D\	.	[2A/	[2f/
=71	=71	=71	=71
4D\]	2A/	2A/]	4f/]
4C/	.	.	4e/
2D\	2.F/	2A/	2f/
[1BB-	.	[1B-	[1d
.	4E/	.	.
.	2F/	.	.
=72	=72	=72	=72
2BB-/]	1.G	2B-\]	2d/]
4C/	.	2G/	4e/
4BB-i/	.	.	4d/
[1C	.	1G	1e
.	2E/	.	.
=73	=73	=73	=73
1C]	1E	2r	2r
.	.	2c\	1e
2r	2r	2c\	.
2C/	[2G/	[2c\	2e/
=74	=74	=74	=74
2C/	2G/]	2c\]	2e/
1C	2G/	1c	1e
.	1A	.	.
[2D\	.	[2A/	[2f/
=75	=75	=75	=75
4D\]	2A/	2A/]	4f/]
4C/	.	.	4e/
2D\	2.F/	2A/	2f/
[1BB-	.	1B-i	[1d
.	4E/	.	.
.	2F/	.	.
=76	=76	=76	=76
2BB-/]	1.G	2B-i\	2d/]
4C/	.	1G	4e/
4BB-i/	.	.	4d/
2.C/	.	.	1e
.	2E/	[2g\	.
4D\	.	.	.
=77	=77	=77	=77
4E\	2.E/	4g\]	2.c/
4F\	.	4f\	.
2G\	.	4e\	.
.	4F/	4d\	4d/
2C/	2G/	2.c\	2e/
2F\	2A/	.	2f/
.	.	4d\	.
=78	=78	=78	=78
2E\	2B\	2e\	2g/
2A\	2c\	2f\	2a/
2G\	2d\	2g\	2b\
2C/	[2e\	[2a\	[2cc\
=79	=79	=79	=79
2.F\	4e\]	4a\]	2cc\]
.	4d\	4g\	.
.	1c	1f	4b\
4A\	.	.	4a/
1G	.	.	1b
.	2B\	2e\	.
=80	=80	=80	=80
0F	0c	1f	1a
.	.	2r	1r
.	.	2f\	.
=81	=81	=81	=81
0r	0r	2f\	1cc
.	.	4e\	.
.	.	4d\	.
.	.	2e\	2cc\
.	.	2f\	2a/
=82	=82	=82	=82
0r	1r	2g\	2b\
.	.	2e\	2cc\
.	1f	1d	2dd\
.	.	.	4cc\
.	.	.	4b\
=83	=83	=83	=83
1D	2f\	0r	1a
.	2d\	.	.
2C/	2e\	.	1r
2D\	2f\	.	.
=84	=84	=84	=84
2E\	2g\	1r	2r
2C/	4f\	.	2a/
.	4e\	.	.
1D	1d	[1f	2a/
.	.	.	2a/
=85	=85	=85	=85
1r	0r	2f\]	1.cc
.	.	4e\	.
.	.	4d\	.
1A	.	2e\	.
.	.	2f\	4b\
.	.	.	4a/
=86	=86	=86	=86
2G\	1r	2g\	2b\
2A\	.	4f\	2cc\
.	.	4e\	.
2.B-\	1f	2.d\	2.dd\
4A\	.	4e\	4cc\
=87	=87	=87	=87
2F\	2f\	4f\	2.a/
.	.	4e\	.
2B-i\	2d\	4f\	.
.	.	4g\	4b-i\
1A	4e\	1a	4cc\
.	4d\	.	4b-i\
.	4e\	.	4cc\
.	4f\	.	4dd\
=88	=88	=88	=88
1r	2g\	0r	2ee\
.	2f\	.	1dd
1A	1e	.	.
.	.	.	2cc#i\
=89	=89	=89	=89
2F\	2d\	0r	0dd
1G	2d\	.	.
.	2.g\	.	.
4F\	.	.	.
4E\	4g\	.	.
=90	=90	=90	=90
2D\	2f\	1r	0r
2F\	1d	.	.
1E	.	1g	.
.	2c#i\	.	.
=91	=91	=91	=91
1D	1d	2f\	1dd
.	.	2d\	.
1r	1r	2e\	2b\
.	.	[2c\	[2cc\
=92	=92	=92	=92
0r	0r	4c\]	2cc\]
.	.	4d\	.
.	.	4e\	4b\
.	.	4f\	4a/
.	.	4e\	2g/
.	.	4d\	.
.	.	[2g\	2b\
=93	=93	=93	=93
1D	1d	2g\]	1a
.	.	2f#i\	.
2E\	2B\	1g	1g
[2C/	[2c\	.	.
=94	=94	=94	=94
4C/]	2c\]	1r	0r
4D\	.	.	.
4E\	4B\	.	.
4F\	4A/	.	.
1G	2G/	2r	.
.	2B\	2g\	.
=95	=95	=95	=95
1D	1A	2f\	1dd
.	.	2d\	.
2E\	1G	2g\	2b\
[2C/	.	[2e\	[2cc\
=96	=96	=96	=96
4C/]	0r	4e\]	2cc\]
4D\	.	4f\	.
4E\	.	4g\	4b\
4F\	.	4f\	4a/
1G	.	2d\	2g/
.	.	[2g\	2b\
=97	=97	=97	=97
1D	1d	2g\]	1a
.	.	2f#i\	.
1r	2B\	1g	2g/
.	[2c\	.	4e/
.	.	.	4f/
=98	=98	=98	=98
0r	2c\]	0r	4g/
.	.	.	4a/
.	4B\	.	2.b\
.	4A/	.	.
.	2G/	.	.
.	.	.	4a/
.	2B\	.	[2g/
=99	=99	=99	=99
1r	1A	2r	2g/]
.	.	2c\	2f#i/
1G	1G	2d\	1g
.	.	2e\	.
=100	=100	=100	=100
0F	0c	0f	1r
.	.	.	1a
=101	=101	=101	=101
1F	1c	1f	1.cc
[1F	[1c	[1f	.
.	.	.	2b\
=102	=102	=102	=102
1F]	1c]	1f]	1a
1C	1c	1e	1g
=103	=103	=103	=103
1D	1A	1d	1f
2.E\	2.G/	2r	1e
.	.	[2g\	.
4F\	4A/	.	.
=104	=104	=104	=104
0G	[0B	2g\]	1d
.	.	4f\	.
.	.	4e\	.
.	.	2d\	2r
.	.	2G/	[2g/
=105	=105	=105	=105
1G	0B]	1.g	2g/]
.	.	.	4f/
.	.	.	4e/
[1Gl	.	.	2d/
.	.	4f\	[2g/
.	.	4e\	.
=106	=106	=106	=106
0G_	[0Bl	1d	4g/]
.	.	.	4a/
.	.	.	4b\
.	.	.	4cc\
.	.	[1dl	2dd\
.	.	.	2g/
=107	=107	=107	=107
0G]	0B]	0d]	0gl
!!LO:LB:i:g=z
=108||	=108||	=108||	=108||
*>B	*>B	*>B	*>B
*clefF4	*clefGv2	*clefGv2	*clefG2
*k[]	*k[]	*k[]	*k[]
*M2/1	*M2/1	*M2/1	*M2/1
*met(C2)	*met(C2)	*met(C2)	*met(C2)
!!section: Crucifixus
!!!OMD: Crucifixus
0F	0c	1.f	0a
.	.	2f\	.
=109.	=109.	=109.	=109.
1F	1c	1f	1a
1F	1c	1f	[1a
=110	=110	=110	=110
1F	0c	1.f	1a]
[1F	.	.	1a
.	.	4e\	.
.	.	4d\	.
=111.	=111.	=111.	=111.
2F\]	1A	1c	1.cc
4E\	.	.	.
4D\	.	.	.
1C	[1c	1c	.
.	.	.	4b\
.	.	.	4a/
=112	=112	=112	=112
1C	2c\]	2c\	1g
.	4B\	2.c\	.
.	4A/	.	.
2C/	1G	.	1g
.	.	4d\	.
[2C/	.	4e\	.
.	.	4f\	.
=113.	=113.	=113.	=113.
4C/]	1G	1.g	1g
4D\	.	.	.
4E\	.	.	.
4F\	.	.	.
[1G	[1B	.	2g/
.	.	4f\	[2g/
.	.	4e\	.
=114	=114	=114	=114
2G\]	2B\]	1d	4g/]
.	.	.	4a/
4F\	4A/	.	4b\
4E\	4G/	.	4cc\
2F\	2A/	1d	1dd
2G\	2B\	.	.
=115.	=115.	=115.	=115.
1C	1G	1c	1.ee
2r	[1g	2r	.
2c\	.	[2e\	2cc\
=116	=116	=116	=116
2c\	1g]	2e\]	1cc
4B\	.	4d\	.
4A\	.	4c\	.
2B\	1g	2d\	2r
2c\	.	[2c\	[2ee\
=117.	=117.	=117.	=117.
1G	1g	2c\]	2ee\]
.	.	4B\	4dd\
.	.	4A/	4cc\
1r	1g	2B\	2dd\
.	.	2c\	2ee\
=118	=118	=118	=118
2r	1g	2G/	2b\
1c	.	4c\	1ee
.	.	4d\	.
.	[1g	4e\	.
.	.	4f\	.
4B\	.	2e\	4dd\
4A\	.	.	4cc\
=119.	=119.	=119.	=119.
2B\	1g]	2d\	2dd\
2c\	.	1c	2ee\
2.F\	[1f	.	1ff
.	.	4B\	.
4E\	.	4A/	.
=120	=120	=120	=120
1D	1f]	1B	1ff
1C	1g	2r	1ee
.	.	2c\	.
=121.	=121.	=121.	=121.
2r	2g\	2G/	1ee
2c\	1g	2.c\	.
2c\	.	.	2ee\
.	.	4d\	.
[2c\	[2e\	4e\	[2cc\
.	.	4f\	.
=122	=122	=122	=122
2c\]	2e\]	2g\	2cc\]
2F\	2f\	2a\	4b\
.	.	.	4a/
2G\	2e\	2g\	2b\
2F\	[2f\	[2a\	[2dd\
=123.	=123.	=123.	=123.
1A	4f\]	4a\]	2dd\]
.	4e\	4g\	.
.	4d\	4e\	1cc
.	4c\	4f\	.
1G	1d	1g	.
.	.	.	2b\
=124	=124	=124	=124
0C	[0c	1e	0cc
.	.	2r	.
.	.	[2g\	.
=125.	=125.	=125.	=125.
1r	0c]	2g\]	0r
.	.	2g\	.
2r	.	2a\	.
[2c\	.	[2g\	.
=126	=126	=126	=126
2c\]	0r	2g\]	0r
2c\	.	2e\	.
2d\	.	2r	.
[2c\	.	[2g\	.
=127.	=127.	=127.	=127.
4c\]	0r	2g\]	0r
4A\	.	.	.
2B\	.	2g\	.
2A\	.	1a	.
[2c\	.	.	.
=128	=128	=128	=128
2c\]	0r	2g\	0r
2c\	.	2e\	.
2d\	.	2r	.
2c\	.	[2a\	.
=129.	=129.	=129.	=129.
2A\	0r	2a\]	0r
1d	.	1a	.
2d\	.	2f\	.
=130	=130	=130	=130
2B\	0r	2g\	0r
2c\	.	4e\	.
.	.	4c\	.
2G\	.	4e\	.
.	.	4f\	.
[2B-\	.	[2g\	.
=131.	=131.	=131.	=131.
4B-\]	0r	2g\]	0r
4A\	.	.	.
4G\	.	1f	.
4F\	.	.	.
1G	.	.	.
.	.	2e\	.
=132	=132	=132	=132
[0F	1c	[0f	1r
.	2c\	.	1a
.	2c\	.	.
=133.	=133.	=133.	=133.
0F]	1c	0f]	2a/
.	.	.	2a/
.	1c	.	1a
=134	=134	=134	=134
0r	1e	0r	2g/
.	.	.	2.cc\
.	2.f\	.	.
.	.	.	4b\
.	.	.	2cc\
.	4e\	.	.
=135.	=135.	=135.	=135.
1r	2f\	1r	2dd\
.	2g\	.	2b\
2r	2e\	2r	2cc\
[2F\	2f\	2c\	[2a/
=136	=136	=136	=136
4F\]	2.d\	2f\	4a/]
4E\	.	.	4g/
2F\	.	2f\	2a/
.	4c\	.	.
2G\	2d\	2d\	2b\
2E\	2e\	2g\	2g/
=137.	=137.	=137.	=137.
2F\	2c\	2.f\	2a/
1D	2.d\	.	2.f/
.	.	4e\	.
.	.	1d	.
.	4c\	.	4e/
2D\	4B\	.	2f/
.	4A/	.	.
=138	=138	=138	=138
2E\	2G/	[0c	4g/
.	.	.	4f/
2F\	2A/	.	4e/
.	.	.	4d/
1C	1G	.	2e/
.	.	.	4f/
.	.	.	4e/
=139.	=139.	=139.	=139.
2r	1F	0c]	0f
2F\	.	.	.
2.F\	1r	.	.
4G\	.	.	.
=140	=140	=140	=140
2A\	2r	0r	0r
2A\	2c\	.	.
2B-i\	2d\	.	.
2G\	2e\	.	.
=141.	=141.	=141.	=141.
1F	2.f\	0r	2r
.	.	.	2a/
.	4e\	.	.
1r	2d\	.	2a/
.	2d\	.	2b\
=142	=142	=142	=142
0r	1c	2r	2.cc\
.	.	2c\	.
.	.	.	4b\
.	1r	2d\	2a/
.	.	2e\	2g/
=143.	=143.	=143.	=143.
2r	0r	2.f\	1a
2F\	.	.	.
.	.	4e\	.
2.F\	.	2d\	1r
.	.	2d\	.
4G\	.	.	.
=144	=144	=144	=144
2A\	2r	1c	0r
2A\	2c\	.	.
2B-i\	2d\	1r	.
2G\	2e\	.	.
=145.	=145.	=145.	=145.
2F\	2.f\	1r	2r
1F	.	.	2a/
.	4e\	.	.
.	2d\	2r	2a/
2G\	2d\	2g\	2b\
=146	=146	=146	=146
2A\	0c	2e\	2.cc\
4F\	.	2.f\	.
4G\	.	.	4b\
4A\	.	.	2a/
4B\	.	4g\	.
[2c\	.	2a\	4g/
.	.	.	4f/
=147.	=147.	=147.	=147.
4c\]	0r	2g\	2g/
4B\	.	.	.
2A\	.	1f	2a/
1G	.	.	1b-i
.	.	2e\	.
=148	=148	=148	=148
0F	2.A/	0f	1a
.	4B\	.	.
.	2c\	.	1r
.	[2d\	.	.
=149.	=149.	=149.	=149.
0r	4d\]	0r	2.a/
.	4e\	.	.
.	4f\	.	.
.	4d\	.	4b\
.	2e\	.	2cc\
.	[2d\	.	[2dd\
=150	=150	=150	=150
0r	2d\]	0r	4dd\]
.	.	.	4ee\
.	2d\	.	4ff\
.	.	.	4dd\
.	2c\	.	2ee\
.	[2f\	.	[2dd\
=151.	=151.	=151.	=151.
0r	4f\]	0r	2dd\]
.	4e\	.	.
.	4f\	.	2dd\
.	4d\	.	.
.	2e\	.	2cc\
.	[2d\	.	[2ff\
=152	=152	=152	=152
0r	2d\]	0r	4ff\]
.	.	.	4ee\
.	2d\	.	4ff\
.	.	.	4dd\
.	2.g\	.	2ee\
.	.	.	[2dd\
.	4f\	.	.
=153.	=153.	=153.	=153.
0r	2e\	0r	2dd\]
.	4d\	.	1cc
.	4c\	.	.
.	1d	.	.
.	.	.	2b\
=154	=154	=154	=154
1.F	0c	2r	0cc
.	.	1f	.
2F\	.	2f\	.
=155.	=155.	=155.	=155.
2A\	0r	2e\	0r
2A\	.	2f\	.
2G\	.	1g	.
[2c\	.	.	.
=156	=156	=156	=156
2c\]	0r	2r	0r
2B\	.	1g	.
2c\	.	.	.
4B\	.	2g\	.
4A\	.	.	.
=157.	=157.	=157.	=157.
2B\	0r	2g\	0r
2c\	.	2g\	.
2F\	.	1a	.
[2c\	.	.	.
=158	=158	=158	=158
2c\]	0r	1g	0r
2B\	.	.	.
2c\	.	2e\	.
[2d\	.	[2f\	.
=159.	=159.	=159.	=159.
2d\]	0r	4f\]	0r
.	.	4e\	.
1c	.	4d\	.
.	.	4c\	.
.	.	1d	.
2B\	.	.	.
=160	=160	=160	=160
*rscale:2/3	*rscale:2/3	*rscale:2/3	*
*	*	*	*M3/1
*	*	*	*met(3)
0.c	0.r	1.c	1g
.	.	.	1a
.	.	1.r	.
.	.	.	1g
*	*rscale:1	*	*
=161.	=161.	=161.	=161.
*	*M3/1	*	*
*	*met(3)	*	*
0.r	1c	0.r	1e
.	1d	.	1f
.	1c	.	1e
=162	=162	=162	=162
0.r	0A	0.r	2c/
.	.	.	2d/
.	.	.	2e/
.	.	.	2f/
.	1B	.	1g
=163.	=163.	=163.	=163.
0.r	1A	0.r	1.a
.	1c	.	.
.	.	.	2cc\
.	1d	.	1b
=164	=164	=164	=164
0.r	1c	0.r	1.a
.	1A	.	.
.	.	.	2f#i/
.	1B	.	1g#i
*rscale:1	*	*rscale:1	*
=165.	=165.	=165.	=165.
*M3/1	*	*M3/1	*
*met(3)	*	*met(3)	*
0.r	0.A	1e	0.a
.	.	1f	.
.	.	1e	.
=166	=166	=166	=166
1A	0.r	1c	0.r
1B-i	.	2f\	.
.	.	2g\	.
1A	.	2a\	.
.	.	2b-i\	.
=167.	=167.	=167.	=167.
1F	0.r	1a	0.r
2G\	.	1.g	.
2A\	.	.	.
2B\	.	.	.
2c\	.	2f\	.
=168	=168	=168	=168
1A	0.r	1.f	0.r
0G	.	.	.
.	.	2e\	.
.	.	1e	.
=169.	=169.	=169.	=169.
1F	1.c	1f	0a
1.F	.	1f	.
.	2c\	.	.
.	1c	1f	1a
2F\	.	.	.
=170	=170	=170	=170
1F	1c	1f	1a
1C	0c	1e	1g
1C	.	[1g	[1cc
=171.	=171.	=171.	=171.
0G	0d	1g]	2cc\]
.	.	.	2b\
.	.	1g	1b
1r	1r	1r	1r
=172	=172	=172	=172
1G	0d	1g	0dd
1G	.	1g	.
[1G	1B	1d	1dd
=173.	=173.	=173.	=173.
2G\]	1G	1.g	1dd
2G\	.	.	.
1D	1A	.	1dd
.	.	2f\	.
1D	1A	1f	1dd
=174	=174	=174	=174
0G	1.G	0g	1.b
.	2A/	.	2cc\
1r	1B	1r	1dd
=175.	=175.	=175.	=175.
1.C	0c	1.e	0ee
2D\	.	2f\	.
1E	1r	1g	1r
=176	=176	=176	=176
1.F	1.c	1.a	0cc
2E\	2d\	2g\	.
1C	1e	1e	[1cc
=177.	=177.	=177.	=177.
1F	1.f	1.c	1cc]
0C	.	.	1cc
.	2e\	2B\	.
.	1e	1G	1cc
=178	=178	=178	=178
0F	0f	0A	1.cc
.	.	.	2dd\
1E	1g	1G	1ee
=179.	=179.	=179.	=179.
1D	1f	1A	1.ff
0C	0g	0c	.
.	.	.	2ee\
.	.	.	1ee
=180	=180	=180	=180
0D	0f	1A	1ff
.	.	1.B-	1.dd
1BB-i	1f	.	.
.	.	2G/	2cc\
=181.	=181.	=181.	=181.
1C	1e	1G	1.cc
0G	0d	1r	.
.	.	.	2b\
.	.	1g	1b
=182	=182	=182	=182
1C	1c	1e	0.cc
1r	1r	1f	.
1c	1r	1g	.
=183.	=183.	=183.	=183.
1A	0.r	1a	1r
1B	.	2f\	1r
.	.	2d\	.
1c	.	1e	1cc
=184	=184	=184	=184
1d	1r	0d	1a
2B\	1r	.	1b
2G\	.	.	.
1A	1f	1r	1cc
=185.	=185.	=185.	=185.
0G	1d	0.r	1dd
.	1e	.	2b\
.	.	.	2g/
1D	1f	.	1a
=186	=186	=186	=186
0.G	1g	1r	0.g
.	2e\	1r	.
.	2c\	.	.
.	1d	1g	.
=187.	=187.	=187.	=187.
1r	1c	1e	0.r
1r	1r	1f	.
1c	1r	1g	.
=188	=188	=188	=188
1A	0.r	1a	1r
1B	.	2f\	1r
.	.	2d\	.
1c	.	1e	1cc
=189.	=189.	=189.	=189.
1d	1r	0d	1a
2B\	1r	.	1b
2G\	.	.	.
1A	1f	1c	1cc
=190	=190	=190	=190
0G	1d	2B\	1dd
.	.	2G/	.
.	1e	2B\	2b\
.	.	2c\	2g/
1D	1f	1A	1a
=191.	=191.	=191.	=191.
1E	1g	1.c	1g
0G	2e\	.	1g
.	2c\	2B\	.
.	1d	1B	1g
=192	=192	=192	=192
0C	1c	0c	0e
.	1c	.	.
1r	1c	1r	1r
=193.	=193.	=193.	=193.
1G	0.d	1B	1g
1G	.	1B	1g
1G	.	1B	1g
=194	=194	=194	=194
1.C	0.r	0c	1.e
2D\	.	.	2f/
1E	.	1B	1g
=195.	=195.	=195.	=195.
1.F	1c	0A	1.a
.	1c	.	.
2E\	.	.	2g/
1E	1c	1e	1g
=196	=196	=196	=196
1.F	1.A	1c	0a
.	.	1f	.
2G\	2B\	.	.
1A	1c	1e	1r
=197.	=197.	=197.	=197.
1D	1.d	1f	1a
0A	.	2e\	1a
.	2c\	2d\	.
.	1c	1e	1a
=198	=198	=198	=198
0D	0d	0d	1.f
.	.	.	2g/
1r	1r	1r	1a
=199.	=199.	=199.	=199.
1D	1d	1f	1b-i
1D	1d	1f	0a
1D	1d	1f	.
=200	=200	=200	=200
1.G	1.B	1.g	0.g
2A\	2c\	2f\	.
1B	1d	1d	.
=201.	=201.	=201.	=201.
1c	1e	1c	0.r
1B	1.d	1f	.
1c	.	[1e	.
.	2c\	.	.
=202	=202	=202	=202
1G	1.c	2e\]	1g
.	.	2c\	.
0G	.	0d	1g
.	2B\	.	.
.	1B	.	1g
=203.	=203.	=203.	=203.
*	*M2/1	*	*
*	*met(C|)	*	*
*	*rscale:2/3	*	*
1.C	[0.c	1.c	1.e
2D\	.	2B\	2f/
1E	.	1G	1g
=204	=204	=204	=204
1F	0.c_	1F	1a
1E	.	1G	1.g
[1F	.	[1A	.
.	.	.	2f/
=205.	=205.	=205.	=205.
1F]	0.c]	2A/]	1.f
.	.	2F/	.
0C	.	0G	.
.	.	.	2e/
.	.	.	1e
*	*rscale:1	*	*
=206	=206	=206	=206
*M2/1	*	*M2/1	*M2/1
*met(C|)	*	*met(C|)	*met(C|)
!!primary-mensuration: met(C|)
0F	0r	1F	1f
.	.	2r	2r
.	.	[2f\	[2a/
=207.	=207.	=207.	=207.
0r	0r	2f\]	2a/]
.	.	2g\	2b\
.	.	1e	1cc
=208	=208	=208	=208
0r	0r	2d\	0dd
.	.	1.g	.
=209.	=209.	=209.	=209.
0r	0r	2g\	2r
.	.	2g\	1dd
.	.	2f\	.
.	.	2d\	2dd\
=210	=210	=210	=210
1r	1r	2f\	2dd\
.	.	2g\	2dd\
2r	2r	[1a	2cc\
[2F\	[2A/	.	2a/
=211.	=211.	=211.	=211.
2F\]	2A/]	2a\]	2cc\
2D\	2B\	4g\	2dd\
.	.	4f\	.
1A	1c	1e	1ee
=212	=212	=212	=212
2D\	0d	1d	2.ff\
1G	.	.	.
.	.	.	4ee\
.	.	1r	4dd\
.	.	.	4cc\
2G\	.	.	[2dd\
=213.	=213.	=213.	=213.
2G\	2r	1r	2dd\]
2G\	1d	.	4cc\
.	.	.	4b\
2F\	.	2r	1a
2D\	2d\	[2a\	.
=214	=214	=214	=214
2F\	2d\	2a\]	0r
2G\	2d\	2g\	.
[1A	2c\	2e\	.
.	2A/	[2f\	.
=215.	=215.	=215.	=215.
2A\]	2c\	2f\]	0r
4G\	2d\	4e\	.
4F\	.	4d\	.
1E	1e	2.c\	.
.	.	4d\	.
=216	=216	=216	=216
*rscale:2/3	*rscale:2/3	*rscale:2/3	*
*	*	*	*M3/1
*	*	*	*met(3)
0.D	0.f	0.d	1a
.	.	.	1a
.	.	.	1a
*	*	*rscale:1	*
=217.	=217.	=217.	=217.
*	*	*M3/1	*
*	*	*met(3)	*
0.r	0.r	1d	1b-
.	.	1d	1.a
.	.	1d	.
.	.	.	2g/
=218	=218	=218	=218
0.r	0.r	1e	1.cc
.	.	0d	.
.	.	.	2b\
.	.	.	1b
*rscale:1	*rscale:1	*	*
=219.	=219.	=219.	=219.
*M3/1	*M3/1	*	*
*met(3)	*met(3)	*	*
1A	1e	0.c	0.cc
1A	1e	.	.
1A	1c	.	.
=220	=220	=220	=220
1B-i	1d	0.r	0.r
0G	1.e	.	.
.	2d\	.	.
=221.	=221.	=221.	=221.
0.F	0.f	1c	1a
.	.	1c	1a
.	.	1c	1a
=222	=222	=222	=222
1r	0.r	1d	1b-i
1r	.	1.e	0g
1C	.	.	.
.	.	2d\	.
=223.	=223.	=223.	=223.
1D	1F	1.f	1f
1.F	1F	.	1.a
.	.	2e\	.
.	[1A	[1c	.
2E\	.	.	2a/
=224	=224	=224	=224
1.C	2A/]	2c\]	1.cc
.	2B\	2d\	.
.	1.c	2e\	.
2D\	.	2f\	2b\
2E\	.	[1g	1g
2F\	2B\	.	.
=225.	=225.	=225.	=225.
1G	1G	1g]	1.dd
1.D	1.d	1.a	.
.	.	.	2cc\
.	.	.	2b\
2E\	2G/	2g\	2a/
=226	=226	=226	=226
2F\	1.c	1.f	1.a
2G\	.	.	.
2A\	.	.	.
2B-i\	2B-i\	2e\	2g/
1G	1B-i	1e	1b-i
=227.	=227.	=227.	=227.
1F	1.c	1f	1a
1C	.	1e	1.g
.	2B-i\	.	.
1F	1A	[1d	.
.	.	.	2f/
=228	=228	=228	=228
1BB-	1B-	1d]	1.f
0C	0G	[0c	.
.	.	.	2e/
.	.	.	1e
=229.	=229.	=229.	=229.
[0.FFl	[0.Fl	0.c]	[0.fl
=230	=230	=230	=230
0.FF]	0.F]	0.cl	0.f]
==	==	==	==
*-	*-	*-	*-
!!!RDF**kern: l=long note in original notation
!!!RDF**kern: i=editorial accidental
!!!ENC:	Chris Gage 06-24-2013
!!!END:	2013/08/05/
!!!EED:	Jesse Rodin
!!!EEV:	2013/08/06/
!!!ONB:	Translated from MusicXML and edited on 2013/08/06/ by Craig Sapp
!!muse2ps: T^@{OPR}^u^@{ONM}{. }@{OTL}^C^@{COM}^i2I150v85,85,85,150Q16
